X:3
T: CUCA 2
N: T0008A
O: Amerika, Mittelamerika, Mexiko
N: zweite Fassung NACH der Mex. Revolution. Die Zeilen 1 und 2 (REFRAIN)
N: knnen wiederholt werden.- Text = beliebige Strophe.
R: Corrido, gesungene Zeitung
M: 4/4
L: 1/8
K: F
zCCC | Fz2AzCCC | Fz2Az4 |
zF2FEEDD | C4
zCCC | Ez2GzCCC | Ez2Gz4 |
zc2dcBAG | A3Fz4 |
zC2CFFAA | c3A4-A |
zc2dcBAc | B3G4-G |
zC2CEEGG | B3G4-G |
zc2dcBAG | A3F4-F

@@@ Tune index: 9679
